X: 100
T: the Barley Grain   #2
R: waltz
%S: s:2 b:28(14+14)
B: O'Neill's 1850 #100
Z: John Chambers <jc@trillian.mit.edu>
Q: "Moderate"
O: F.O'Neill
M: 3/4
L: 1/4
K: G
"^A"[|] (G/A/) \
| B2B | (d2e) | (B2A) | (G2A) |\
| B2B | d2A | B3- | B2 |\
| (G/A/) \
| B2B | (e2d) | (B2A) | (G2F) |\
| EFE | B2A |
| G3- | G2 "^B"|[| G/F/ |:\
E2E | EFG | (F2E) | (D2 \
[1F) | E2E | EFE | B3 | (A2F) :|\
[2c | (B2G) | (A2F) | G3- | G2 |]
